X: 31212
T: Paddy Fahey's
R: jig
M: 6/8
K: Cmajor
"C"FGC "G"DEF|"C"GcA "G"Bcd|"C"efd g2 a|"Dm7"fdc "G7"BGF|
"C"E2 G "G7"F2 D|"C"GCD EFG|"G"B/c/dB "C"cBG||1 "Dm7"FDG "C"C3:|2 "G7"FDG "C"CEG||
|:"C"c(3d/c/B/c "Am"Ace|"G"gfa "C"gec|"Dm"Ad^c "Em7"deg|"D7"^fdc "G7"BGF|
"C"G,CE Gce|"G"g^fa "C"gec|"Dm7"AdB "C"cBG|"G7"FDG "C"C3:|

